build/documents/FileTIFSolid.svg

<svg xmlns="http://www.w3.org/2000/svg" fill="none" viewBox="0 0 24 24" focusable="false"><path d="M0 0H24V24H0z"/><path fill="#74767B" fill-rule="evenodd" d="M5 6L5 11C3.34315 11 2 12.3431 2 14L2 18C2 19.6569 3.34315 21 5 21L19 21C20.6569 21 22 19.6569 22 18L22 14C22 12.3431 20.6569 11 19 11L19 9.17966C19 8.42148 18.7129 7.69141 18.1965 7.13629L15.2385 3.95662C14.671 3.34655 13.8752 3 13.042 3L8 3C6.34315 3 5 4.34315 5 6ZM8 4.3L13.042 4.3C13.1461 4.3 13.2491 4.30954 13.3499 4.32811L13.3499 7.04926C13.3499 8.12621 14.223 8.99926 15.2999 8.99926L17.6904 8.99925C17.6968 9.05892 17.7 9.11913 17.7 9.17966L17.7 11L6.3 11L6.3 6C6.3 5.06112 7.06112 4.3 8 4.3ZM16.9447 7.69926L14.6499 5.23254L14.6499 7.04926C14.6499 7.40824 14.9409 7.69926 15.2999 7.69926L16.9447 7.69926ZM15.5323 17.7613C15.5323 18.1203 15.2413 18.4113 14.8823 18.4113C14.5233 18.4113 14.2323 18.1203 14.2323 17.7613L14.2323 14.2441C14.2323 13.8851 14.5233 13.5941 14.8823 13.5941L16.6012 13.5941C16.9602 13.5941 17.2512 13.8851 17.2512 14.2441C17.2512 14.603 16.9602 14.8941 16.6012 14.8941L15.5323 14.8941L15.5323 15.8942L16.0133 15.8942C16.3723 15.8942 16.6633 16.1852 16.6633 16.5442C16.6633 16.9032 16.3723 17.1942 16.0133 17.1942L15.5323 17.1942L15.5323 17.7613ZM10.4704 14.2441C10.4704 14.6031 10.1794 14.8941 9.82042 14.8941L9.25937 14.8941L9.25937 17.7614C9.25937 18.1203 8.96836 18.4114 8.60938 18.4114C8.25039 18.4114 7.95937 18.1203 7.95937 17.7614L7.95937 14.8941L7.39844 14.8941C7.03945 14.8941 6.74844 14.6031 6.74844 14.2441C6.74844 13.8851 7.03945 13.5941 7.39844 13.5941L8.60378 13.5941L8.60938 13.5941L8.61497 13.5941L9.82042 13.5941C10.1794 13.5941 10.4704 13.8851 10.4704 14.2441ZM12.1206 13.5941C12.4796 13.5941 12.7706 13.8851 12.7706 14.2441L12.7706 17.7613C12.7706 18.1203 12.4796 18.4113 12.1206 18.4113C11.7616 18.4113 11.4706 18.1203 11.4706 17.7613L11.4706 14.2441C11.4706 13.8851 11.7616 13.5941 12.1206 13.5941Z"/></svg>

<svg xmlns="http://www.w3.org/2000/svg" fill="none" viewBox="0 0 24 24" focusable="false"><path fill="#74767B" fill-rule="evenodd" d="M5 6v5c-1.66 0-3 1.34-3 3v4c0 1.65 1.34 3 3 3h14c1.65 0 3-1.35 3-3v-4c0-1.66-1.35-3-3-3V9.17c0-.75-.29-1.48-.81-2.04l-2.96-3.18c-.56-.61-1.36-.95-2.19-.95H8C6.34 3 5 4.34 5 6m3-1.71h5.04q.15 0 .3.03v2.72c0 1.08.88 1.95 1.95 1.95h2.4c0 .06.01.12.01.18V11H6.3V6c0-.94.76-1.71 1.7-1.71m8.94 3.4-2.3-2.46v1.81c0 .36.3.65.65.65zm-1.41 10.07c0 .36-.29.65-.65.65s-.65-.29-.65-.65v-3.52c0-.36.29-.65.65-.65h1.72c.36 0 .65.29.65.65s-.29.65-.65.65h-1.07v1h.48c.36 0 .65.29.65.65s-.29.65-.65.65h-.48zm-5.06-3.52c0 .36-.3.65-.65.65h-.57v2.87c0 .36-.29.65-.65.65-.35 0-.65-.29-.65-.65v-2.87h-.56c-.36 0-.65-.29-.65-.65s.29-.65.65-.65h2.43c.35 0 .65.29.65.65m1.65-.65c.35 0 .65.29.65.65v3.52c0 .36-.3.65-.65.65-.36 0-.65-.29-.65-.65v-3.52c0-.36.29-.65.65-.65"/></svg>
